packages/web/public/svg/person-card-bg.svg

<svg fill="none" height="343" viewBox="0 0 242 343" width="242" xmlns="http://www.w3.org/2000/svg" xmlns:xlink="http://www.w3.org/1999/xlink"><filter id="a" color-interpolation-filters="sRGB" filterUnits="userSpaceOnUse" height="190.983" width="242" x="0" y="75.3228"><feFlood flood-opacity="0" result="BackgroundImageFix"/><feColorMatrix in="SourceAlpha" result="hardAlpha" type="matrix" values="0 0 0 0 0 0 0 0 0 0 0 0 0 0 0 0 0 0 127 0"/><feOffset/><feGaussianBlur stdDeviation="7.5"/><feColorMatrix type="matrix" values="0 0 0 0 0.4 0 0 0 0 0.4 0 0 0 0 0.4 0 0 0 0.279037 0"/><feBlend in2="BackgroundImageFix" mode="normal" result="effect1_dropShadow_8_4"/><feBlend in="SourceGraphic" in2="effect1_dropShadow_8_4" mode="normal" result="shape"/></filter><linearGradient id="b" gradientUnits="userSpaceOnUse" x1="-123.334" x2="-106.27" y1="136.036" y2="275.012"><stop offset="0" stop-color="#ff9d52"/><stop offset="1" stop-color="#ff6f00"/></linearGradient><mask id="c" height="239" maskUnits="userSpaceOnUse" width="212" x="15" y="0"><path clip-rule="evenodd" d="m34.6952 10.6243c-11.0699.6892-19.6952 9.8682-19.6952 20.9595v185.5232c0 12.112 10.217 21.712 22.3048 20.96l170.0002-10.583c11.07-.689 19.695-9.868 19.695-20.96v-185.5232c0-12.11117-10.217-21.711893-22.305-20.9593956zm171.4088 24.3607c6.085 0 11.018-4.9412 11.018-11.0365s-4.933-11.0365-11.018-11.0365-11.018 4.9412-11.018 11.0365 4.933 11.0365 11.018 11.0365z" fill="#fff" fill-rule="evenodd"/></mask><g filter="url(#a)"><path clip-rule="evenodd" d="m15 111.323c0-11.5982 9.402-21.0002 21-21.0002h170c11.598 0 21 9.402 21 21.0002v108.399c0 11.091-8.625 20.27-19.695 20.959l-170.0002 10.583c-12.0878.753-22.3048-8.848-22.3048-20.959z" fill="#e06506" fill-rule="evenodd"/></g><path clip-rule="evenodd" d="m34.6952 10.6243c-11.0699.6892-19.6952 9.8682-19.6952 20.9595v185.5232c0 12.112 10.217 21.712 22.3048 20.96l170.0002-10.583c11.07-.689 19.695-9.868 19.695-20.96v-185.5232c0-12.11117-10.217-21.711893-22.305-20.9593956zm171.4088 24.3607c6.085 0 11.018-4.9412 11.018-11.0365s-4.933-11.0365-11.018-11.0365-11.018 4.9412-11.018 11.0365 4.933 11.0365 11.018 11.0365z" fill="#9b59b6" fill-rule="evenodd"/><g mask="url(#c)"><path clip-rule="evenodd" d="m-106.27 275.012s215.664-189.9951 315.168-176.1981c99.504 13.7971 110.218 111.8761 110.218 111.8761z" fill="url(#b)" fill-rule="evenodd"/></g><g clip-rule="evenodd" fill-rule="evenodd"><path d="m57.9055 111.395c-4.2632 4.257-5.9055 10.28-5.9055 16.305v58.613c0 4.97 4.0294 8.999 9 8.999h122c4.971 0 9-4.029 9-9v-33.852c0-3.648-.587-7.311-2.484-10.426-5.198-8.536-19.07-23.651-46.393-6.685-36.328 22.559-36.328-14.29-55.0423-28.87-12.0366-9.378-23.5158-1.733-30.1752 4.916z" fill="#fff" opacity=".5"/><path d="m50.828 129.136c-4.8794 4.335-6.828 10.844-6.828 17.371v57.806c0 4.97 4.0294 8.999 9 8.999h137c4.971 0 9-4.029 9-9v-33.303c0-4.004-.71-8.024-2.985-11.319-5.932-8.589-21.28-23.082-51.129-6.341-40.22 22.559-40.22-14.29-60.9395-28.87-13.1533-9.256-25.7053-1.929-33.1185 4.657z" fill="#fff"/><path d="m15 283.149c0-8.991 7.0016-16.427 15.9767-16.969l178.3573-10.756c9.926-.598 18.245 7.413 18.019 17.355l-.846 37.328c-.198 8.724-6.967 15.881-15.666 16.563l-177.5117 13.923c-9.8825.775-18.3293-7.035-18.3293-16.948z" fill="#71368a"/><path d="m15 273.149c0-8.991 7.0016-16.427 15.9767-16.969l178.3573-10.756c9.926-.598 18.245 7.413 18.019 17.355l-.846 37.328c-.198 8.724-6.967 15.881-15.666 16.563l-177.5117 13.923c-9.8825.775-18.3293-7.035-18.3293-16.948z" fill="#9b59b6"/></g></svg>

<svg width="242" height="343" viewBox="0 0 242 343" fill="none" xmlns="http://www.w3.org/2000/svg">
<g filter="url(#filter0_d_8_4)">
<path fill-rule="evenodd" clip-rule="evenodd" d="M15 111.323C15 99.7248 24.402 90.3228 36 90.3228H206C217.598 90.3228 227 99.7248 227 111.323V219.722C227 230.813 218.375 239.992 207.305 240.681L37.3048 251.264C25.217 252.017 15 242.416 15 230.305V111.323Z" fill="#E06506"/>
</g>
<path fill-rule="evenodd" clip-rule="evenodd" d="M34.6952 10.6243C23.6253 11.3135 15 20.4925 15 31.5838V217.107C15 229.219 25.217 238.819 37.3048 238.067L207.305 227.484C218.375 226.795 227 217.616 227 206.524V21.0008C227 8.88963 216.783 -0.711093 204.695 0.0414044L34.6952 10.6243ZM206.104 34.985C212.189 34.985 217.122 30.0438 217.122 23.9485C217.122 17.8532 212.189 12.912 206.104 12.912C200.019 12.912 195.086 17.8532 195.086 23.9485C195.086 30.0438 200.019 34.985 206.104 34.985Z" fill="#9B59B6"/>
<mask id="mask0_8_4" style="mask-type:alpha" maskUnits="userSpaceOnUse" x="15" y="0" width="212" height="239">
<path fill-rule="evenodd" clip-rule="evenodd" d="M34.6952 10.6243C23.6253 11.3135 15 20.4925 15 31.5838V217.107C15 229.219 25.217 238.819 37.3048 238.067L207.305 227.484C218.375 226.795 227 217.616 227 206.524V21.0008C227 8.88963 216.783 -0.711093 204.695 0.0414044L34.6952 10.6243ZM206.104 34.985C212.189 34.985 217.122 30.0438 217.122 23.9485C217.122 17.8532 212.189 12.912 206.104 12.912C200.019 12.912 195.086 17.8532 195.086 23.9485C195.086 30.0438 200.019 34.985 206.104 34.985Z" fill="white"/>
</mask>
<g mask="url(#mask0_8_4)">
<path fill-rule="evenodd" clip-rule="evenodd" d="M-106.27 275.012C-106.27 275.012 109.394 85.0169 208.898 98.8139C308.402 112.611 319.116 210.69 319.116 210.69L-106.27 275.012Z" fill="url(#paint0_linear_8_4)"/>
</g>
<path opacity="0.5" fill-rule="evenodd" clip-rule="evenodd" d="M57.9055 111.395C53.6423 115.652 52 121.675 52 127.7V186.313C52 191.283 56.0294 195.312 61 195.312H183C187.971 195.312 192 191.283 192 186.312V152.46C192 148.812 191.413 145.149 189.516 142.034C184.318 133.498 170.446 118.383 143.123 135.349C106.795 157.908 106.795 121.059 88.0807 106.479C76.0441 97.101 64.5649 104.746 57.9055 111.395Z" fill="white"/>
<path fill-rule="evenodd" clip-rule="evenodd" d="M50.828 129.136C45.9486 133.471 44 139.98 44 146.507V204.313C44 209.283 48.0294 213.312 53 213.312H190C194.971 213.312 199 209.283 199 204.312V171.009C199 167.005 198.29 162.985 196.015 159.69C190.083 151.101 174.735 136.608 144.886 153.349C104.666 175.908 104.666 139.059 83.9465 124.479C70.7932 115.223 58.2412 122.55 50.828 129.136Z" fill="white"/>
<path fill-rule="evenodd" clip-rule="evenodd" d="M15 283.149C15 274.158 22.0016 266.722 30.9767 266.18L209.334 255.424C219.26 254.826 227.579 262.837 227.353 272.779L226.507 310.107C226.309 318.831 219.54 325.988 210.841 326.67L33.3293 340.593C23.4468 341.368 15 333.558 15 323.645V283.149Z" fill="#71368A"/>
<path fill-rule="evenodd" clip-rule="evenodd" d="M15 273.149C15 264.158 22.0016 256.722 30.9767 256.18L209.334 245.424C219.26 244.826 227.579 252.837 227.353 262.779L226.507 300.107C226.309 308.831 219.54 315.988 210.841 316.67L33.3293 330.593C23.4468 331.368 15 323.558 15 313.645V273.149Z" fill="#9B59B6"/>
<defs>
<filter id="filter0_d_8_4" x="0" y="75.3228" width="242" height="190.983" filterUnits="userSpaceOnUse" color-interpolation-filters="sRGB">
<feFlood flood-opacity="0" result="BackgroundImageFix"/>
<feColorMatrix in="SourceAlpha" type="matrix" values="0 0 0 0 0 0 0 0 0 0 0 0 0 0 0 0 0 0 127 0" result="hardAlpha"/>
<feOffset/>
<feGaussianBlur stdDeviation="7.5"/>
<feColorMatrix type="matrix" values="0 0 0 0 0.4 0 0 0 0 0.4 0 0 0 0 0.4 0 0 0 0.279037 0"/>
<feBlend mode="normal" in2="BackgroundImageFix" result="effect1_dropShadow_8_4"/>
<feBlend mode="normal" in="SourceGraphic" in2="effect1_dropShadow_8_4" result="shape"/>
</filter>
<linearGradient id="paint0_linear_8_4" x1="-123.334" y1="136.036" x2="-106.27" y2="275.012" gradientUnits="userSpaceOnUse">
<stop stop-color="#FF9D52"/>
<stop offset="1" stop-color="#FF6F00"/>
</linearGradient>
</defs>
</svg>
